flaticon/business/coin-3.svg

<svg xmlns="http://www.w3.org/2000/svg" width="32" height="32" viewBox="0 0 24 24">
    <path d="M 13.242188 0 C 12.820312 0 12.402344 0.03125 11.992188 0.0859375 C 11.566406 0.03125 11.160156 0 10.757812 0 C 7.710938 0 4.964844 1.476562 3.039062 3.832031 C 3.019531 3.851562 3.003906 3.871094 2.988281 3.890625 C 2.375 4.652344 1.84375 5.503906 1.417969 6.425781 C 1.40625 6.449219 1.398438 6.46875 1.390625 6.488281 C 1.097656 7.132812 0.851562 7.808594 0.660156 8.515625 C 0.644531 8.554688 0.636719 8.597656 0.628906 8.644531 C 0.355469 9.710938 0.207031 10.835938 0.207031 12 C 0.207031 13.824219 0.566406 15.550781 1.210938 17.097656 C 1.214844 17.113281 1.21875 17.128906 1.230469 17.144531 C 1.613281 18.0625 2.097656 18.917969 2.664062 19.6875 C 2.679688 19.707031 2.691406 19.730469 2.710938 19.746094 C 3.285156 20.519531 3.945312 21.207031 4.671875 21.792969 C 4.691406 21.816406 4.71875 21.832031 4.742188 21.847656 C 6.449219 23.203125 8.523438 24 10.757812 24 C 11.160156 24 11.566406 23.96875 11.992188 23.914062 C 12.402344 23.96875 12.820312 24 13.242188 24 C 19.058594 24 23.792969 18.617188 23.792969 12 C 23.792969 5.382812 19.058594 0 13.242188 0 Z M 8.871094 1.082031 C 8.734375 1.152344 8.597656 1.226562 8.464844 1.304688 C 8.390625 1.347656 8.316406 1.390625 8.242188 1.433594 C 8.128906 1.503906 8.015625 1.582031 7.902344 1.65625 L 7.105469 1.65625 C 7.710938 1.371094 8.34375 1.148438 9 1.011719 C 8.957031 1.03125 8.914062 1.058594 8.871094 1.082031 Z M 4.699219 19.035156 L 3.21875 19.035156 C 2.851562 18.519531 2.527344 17.964844 2.246094 17.378906 L 3.8125 17.378906 C 3.878906 17.527344 3.945312 17.671875 4.015625 17.8125 C 4.046875 17.875 4.078125 17.9375 4.109375 17.996094 C 4.195312 18.164062 4.28125 18.328125 4.371094 18.488281 C 4.40625 18.546875 4.4375 18.609375 4.472656 18.667969 C 4.546875 18.792969 4.625 18.914062 4.699219 19.035156 Z M 2.054688 7.035156 L 3.640625 7.035156 C 3.566406 7.214844 3.5 7.398438 3.433594 7.582031 C 3.414062 7.636719 3.398438 7.6875 3.378906 7.738281 C 3.320312 7.914062 3.265625 8.09375 3.210938 8.277344 L 1.597656 8.277344 C 1.726562 7.847656 1.882812 7.433594 2.054688 7.035156 Z M 1.035156 12 C 1.035156 11.722656 1.050781 11.445312 1.066406 11.171875 L 2.714844 11.171875 C 2.714844 11.179688 2.714844 11.1875 2.714844 11.191406 C 2.699219 11.460938 2.691406 11.726562 2.691406 12 C 2.691406 12.136719 2.695312 12.277344 2.699219 12.414062 L 1.050781 12.414062 C 1.046875 12.277344 1.035156 12.140625 1.035156 12 Z M 2.746094 13.242188 C 2.761719 13.414062 2.78125 13.589844 2.804688 13.761719 C 2.804688 13.773438 2.808594 13.785156 2.808594 13.796875 C 2.839844 14.027344 2.875 14.257812 2.917969 14.484375 L 1.285156 14.484375 C 1.207031 14.078125 1.140625 13.664062 1.101562 13.242188 Z M 3.003906 9.101562 C 2.992188 9.152344 2.984375 9.203125 2.972656 9.25 C 2.960938 9.304688 2.949219 9.359375 2.9375 9.414062 C 2.890625 9.671875 2.84375 9.9375 2.808594 10.203125 C 2.808594 10.214844 2.804688 10.226562 2.804688 10.238281 C 2.800781 10.273438 2.796875 10.308594 2.792969 10.34375 L 1.148438 10.34375 C 1.203125 9.921875 1.273438 9.507812 1.367188 9.101562 Z M 3.101562 15.308594 C 3.113281 15.359375 3.125 15.414062 3.140625 15.460938 C 3.144531 15.480469 3.148438 15.5 3.152344 15.519531 C 3.222656 15.769531 3.296875 16.015625 3.378906 16.261719 C 3.398438 16.3125 3.414062 16.363281 3.433594 16.414062 C 3.449219 16.460938 3.464844 16.507812 3.480469 16.550781 L 1.886719 16.550781 C 1.730469 16.148438 1.59375 15.734375 1.480469 15.308594 Z M 4.472656 5.332031 C 4.4375 5.390625 4.40625 5.453125 4.371094 5.511719 C 4.28125 5.671875 4.191406 5.835938 4.109375 6.003906 C 4.078125 6.0625 4.046875 6.125 4.015625 6.1875 C 4.011719 6.191406 4.007812 6.199219 4.003906 6.207031 L 2.453125 6.207031 C 2.765625 5.617188 3.128906 5.0625 3.527344 4.550781 L 4.976562 4.550781 C 4.925781 4.625 4.875 4.695312 4.828125 4.769531 C 4.703125 4.953125 4.585938 5.140625 4.472656 5.332031 Z M 5.683594 2.484375 L 6.824219 2.484375 C 6.722656 2.574219 6.621094 2.664062 6.519531 2.757812 C 6.4375 2.835938 6.355469 2.917969 6.273438 3 C 6.191406 3.082031 6.113281 3.164062 6.03125 3.25 C 5.957031 3.332031 5.878906 3.410156 5.804688 3.496094 C 5.738281 3.570312 5.675781 3.648438 5.613281 3.722656 L 4.246094 3.722656 C 4.691406 3.261719 5.167969 2.84375 5.683594 2.484375 Z M 3.859375 19.863281 L 5.277344 19.863281 C 5.324219 19.921875 5.371094 19.984375 5.417969 20.042969 C 5.542969 20.203125 5.671875 20.355469 5.804688 20.503906 C 5.878906 20.589844 5.957031 20.667969 6.03125 20.75 C 6.113281 20.835938 6.195312 20.917969 6.277344 21.003906 C 6.308594 21.035156 6.339844 21.070312 6.375 21.101562 L 5.128906 21.101562 C 4.675781 20.730469 4.25 20.316406 3.859375 19.863281 Z M 9 22.988281 C 8.050781 22.789062 7.15625 22.421875 6.324219 21.929688 L 7.324219 21.929688 C 7.378906 21.972656 7.433594 22.011719 7.484375 22.050781 C 7.570312 22.113281 7.65625 22.179688 7.746094 22.238281 C 7.90625 22.351562 8.074219 22.460938 8.242188 22.566406 C 8.316406 22.609375 8.390625 22.652344 8.464844 22.695312 C 8.597656 22.773438 8.734375 22.847656 8.871094 22.917969 C 8.914062 22.941406 8.957031 22.96875 9 22.988281 Z M 13.242188 23.171875 C 12.914062 23.171875 12.585938 23.152344 12.265625 23.117188 L 12.105469 23.09375 C 12.085938 23.089844 12.0625 23.085938 12.039062 23.085938 C 11.898438 23.0625 11.757812 23.039062 11.613281 23.011719 C 11.601562 23.011719 11.589844 23.007812 11.578125 23.003906 C 11.441406 22.980469 11.308594 22.949219 11.171875 22.914062 C 11.152344 22.910156 11.132812 22.902344 11.113281 22.898438 C 10.988281 22.867188 10.863281 22.832031 10.738281 22.796875 C 10.699219 22.785156 10.664062 22.769531 10.625 22.757812 C 10.519531 22.726562 10.414062 22.691406 10.3125 22.652344 C 10.226562 22.621094 10.144531 22.589844 10.058594 22.554688 C 10.003906 22.53125 9.945312 22.511719 9.890625 22.488281 C 7.664062 21.546875 5.820312 19.695312 4.699219 17.328125 C 4.6875 17.308594 4.675781 17.285156 4.667969 17.265625 C 4.609375 17.136719 4.550781 17.003906 4.492188 16.875 C 4.472656 16.820312 4.449219 16.769531 4.429688 16.714844 C 4.386719 16.613281 4.34375 16.507812 4.308594 16.40625 C 4.28125 16.335938 4.257812 16.269531 4.234375 16.203125 C 4.203125 16.109375 4.167969 16.015625 4.140625 15.925781 C 4.113281 15.847656 4.089844 15.769531 4.066406 15.695312 C 4.039062 15.609375 4.015625 15.519531 3.988281 15.429688 C 3.964844 15.351562 3.945312 15.269531 3.921875 15.1875 C 3.902344 15.101562 3.878906 15.011719 3.859375 14.925781 C 3.839844 14.84375 3.820312 14.757812 3.800781 14.675781 C 3.78125 14.585938 3.765625 14.5 3.746094 14.410156 C 3.730469 14.324219 3.714844 14.238281 3.699219 14.152344 C 3.683594 14.0625 3.671875 13.96875 3.65625 13.878906 C 3.644531 13.792969 3.632812 13.710938 3.621094 13.628906 C 3.609375 13.527344 3.597656 13.425781 3.589844 13.328125 C 3.582031 13.25 3.570312 13.171875 3.5625 13.09375 C 3.554688 12.976562 3.546875 12.863281 3.542969 12.746094 C 3.539062 12.679688 3.53125 12.617188 3.527344 12.550781 C 3.523438 12.367188 3.515625 12.183594 3.515625 12 C 3.515625 11.816406 3.523438 11.632812 3.527344 11.449219 C 3.53125 11.382812 3.539062 11.320312 3.542969 11.253906 C 3.546875 11.136719 3.554688 11.023438 3.5625 10.90625 C 3.570312 10.828125 3.582031 10.75 3.589844 10.671875 C 3.597656 10.574219 3.609375 10.472656 3.621094 10.371094 C 3.632812 10.289062 3.644531 10.203125 3.65625 10.121094 C 3.671875 10.027344 3.683594 9.9375 3.699219 9.847656 C 3.714844 9.761719 3.730469 9.675781 3.746094 9.589844 C 3.765625 9.5 3.78125 9.414062 3.800781 9.324219 C 3.820312 9.242188 3.839844 9.15625 3.859375 9.074219 C 3.878906 8.984375 3.902344 8.898438 3.921875 8.8125 C 3.945312 8.730469 3.964844 8.648438 3.988281 8.566406 C 4.011719 8.480469 4.039062 8.390625 4.066406 8.304688 C 4.089844 8.226562 4.113281 8.152344 4.136719 8.074219 C 4.167969 7.980469 4.203125 7.890625 4.234375 7.796875 C 4.257812 7.730469 4.28125 7.660156 4.308594 7.59375 C 4.347656 7.488281 4.386719 7.386719 4.429688 7.285156 C 4.449219 7.230469 4.472656 7.179688 4.492188 7.125 C 4.550781 6.992188 4.609375 6.863281 4.667969 6.734375 C 4.679688 6.714844 4.6875 6.691406 4.699219 6.667969 C 5.820312 4.304688 7.664062 2.453125 9.890625 1.511719 C 9.945312 1.488281 10.003906 1.464844 10.058594 1.445312 C 10.144531 1.410156 10.226562 1.378906 10.3125 1.347656 C 10.414062 1.308594 10.519531 1.273438 10.625 1.242188 C 10.664062 1.230469 10.699219 1.214844 10.738281 1.203125 C 10.863281 1.167969 10.988281 1.132812 11.113281 1.101562 C 11.132812 1.097656 11.152344 1.089844 11.171875 1.085938 C 11.308594 1.050781 11.441406 1.019531 11.578125 0.992188 C 11.589844 0.992188 11.601562 0.988281 11.613281 0.988281 C 11.753906 0.960938 11.898438 0.9375 12.039062 0.914062 C 12.0625 0.910156 12.085938 0.910156 12.105469 0.90625 L 12.265625 0.882812 C 12.585938 0.847656 12.914062 0.828125 13.242188 0.828125 C 18.601562 0.828125 22.964844 5.839844 22.964844 12 C 22.964844 18.160156 18.601562 23.171875 13.242188 23.171875 Z M 13.242188 23.171875"/>
    <path d="M5.863281 12C5.863281 11.738281 5.871094 11.476562 5.894531 11.222656 5.910156 10.996094 5.742188 10.796875 5.511719 10.777344 5.285156 10.761719 5.085938 10.929688 5.066406 11.15625 5.046875 11.433594 5.035156 11.71875 5.035156 12L5.035156 12.007812C5.035156 12.238281 5.21875 12.417969 5.449219 12.417969 5.675781 12.417969 5.863281 12.226562 5.863281 12zM20.332031 9.636719C20.378906 9.824219 20.546875 9.949219 20.730469 9.949219 20.765625 9.949219 20.800781 9.945312 20.832031 9.9375 21.054688 9.882812 21.191406 9.65625 21.132812 9.4375 21.066406 9.160156 20.984375 8.882812 20.890625 8.617188 20.816406 8.402344 20.582031 8.285156 20.367188 8.359375 20.148438 8.433594 20.035156 8.667969 20.109375 8.886719 20.191406 9.128906 20.265625 9.382812 20.332031 9.636719zM18.628906 17.800781C18.464844 18.003906 18.289062 18.199219 18.109375 18.382812 17.949219 18.542969 17.949219 18.804688 18.113281 18.964844 18.191406 19.046875 18.296875 19.085938 18.402344 19.085938 18.511719 19.085938 18.617188 19.046875 18.695312 18.964844 18.894531 18.761719 19.089844 18.546875 19.273438 18.324219 19.417969 18.144531 19.390625 17.886719 19.210938 17.742188 19.035156 17.597656 18.773438 17.625 18.628906 17.800781zM6.148438 14.347656C6.09375 14.125 5.867188 13.988281 5.644531 14.042969 5.425781 14.097656 5.289062 14.324219 5.34375 14.546875 5.414062 14.820312 5.492188 15.097656 5.585938 15.367188 5.644531 15.539062 5.804688 15.644531 5.976562 15.644531 6.019531 15.644531 6.066406 15.640625 6.109375 15.625 6.328125 15.550781 6.441406 15.316406 6.367188 15.097656 6.285156 14.851562 6.210938 14.597656 6.148438 14.347656zM17.320312 3.910156C17.078125 3.753906 16.828125 3.605469 16.570312 3.476562 16.367188 3.375 16.117188 3.457031 16.015625 3.660156 15.910156 3.867188 15.992188 4.113281 16.199219 4.21875 16.425781 4.332031 16.652344 4.460938 16.867188 4.601562 16.9375 4.648438 17.015625 4.671875 17.09375 4.671875 17.230469 4.671875 17.363281 4.605469 17.441406 4.484375 17.566406 4.292969 17.511719 4.035156 17.320312 3.910156zM16.242188 19.761719C16.011719 19.878906 15.777344 19.984375 15.535156 20.074219 15.324219 20.152344 15.214844 20.390625 15.296875 20.605469 15.359375 20.773438 15.515625 20.875 15.683594 20.875 15.730469 20.875 15.78125 20.867188 15.828125 20.847656 16.097656 20.746094 16.363281 20.628906 16.621094 20.496094 16.824219 20.390625 16.90625 20.140625 16.800781 19.9375 16.695312 19.734375 16.445312 19.65625 16.242188 19.761719zM19.75 6.320312C19.589844 6.082031 19.417969 5.851562 19.234375 5.632812 19.089844 5.457031 18.828125 5.429688 18.652344 5.578125 18.476562 5.722656 18.453125 5.984375 18.597656 6.160156 18.761719 6.359375 18.917969 6.570312 19.066406 6.785156 19.144531 6.902344 19.273438 6.96875 19.40625 6.96875 19.488281 6.96875 19.566406 6.945312 19.640625 6.894531 19.828125 6.769531 19.878906 6.511719 19.75 6.320312zM21.035156 11.574219C20.804688 11.574219 20.621094 11.773438 20.621094 12 20.621094 12.253906 20.609375 12.511719 20.589844 12.761719 20.574219 12.988281 20.742188 13.1875 20.972656 13.203125 20.984375 13.207031 20.992188 13.207031 21.003906 13.207031 21.21875 13.207031 21.398438 13.042969 21.417969 12.824219 21.4375 12.550781 21.449219 12.273438 21.449219 12L21.449219 11.972656C21.449219 11.746094 21.261719 11.574219 21.035156 11.574219zM20.648438 14.804688C20.433594 14.734375 20.199219 14.851562 20.125 15.066406 20.039062 15.316406 19.945312 15.5625 19.84375 15.796875 19.75 16.007812 19.847656 16.253906 20.058594 16.34375 20.109375 16.367188 20.167969 16.378906 20.222656 16.378906 20.382812 16.378906 20.535156 16.285156 20.601562 16.128906 20.714844 15.871094 20.816406 15.601562 20.910156 15.332031 20.980469 15.113281 20.867188 14.878906 20.648438 14.804688zM14.089844 2.730469C13.808594 2.695312 13.523438 2.679688 13.242188 2.679688L13.222656 2.679688C12.996094 2.679688 12.820312 2.863281 12.820312 3.09375 12.820312 3.320312 13.011719 3.507812 13.242188 3.507812 13.492188 3.507812 13.746094 3.523438 13.992188 3.550781 14.011719 3.554688 14.027344 3.554688 14.042969 3.554688 14.25 3.554688 14.429688 3.398438 14.453125 3.1875 14.480469 2.960938 14.316406 2.753906 14.089844 2.730469zM7.40625 17.199219C7.28125 17.011719 7.023438 16.960938 6.832031 17.089844 6.644531 17.214844 6.59375 17.472656 6.722656 17.664062 6.882812 17.902344 7.054688 18.132812 7.234375 18.351562 7.316406 18.453125 7.433594 18.503906 7.554688 18.503906 7.648438 18.503906 7.742188 18.472656 7.816406 18.410156 7.992188 18.265625 8.019531 18.003906 7.875 17.828125 7.710938 17.628906 7.554688 17.417969 7.40625 17.199219zM6.433594 7.640625C6.222656 7.550781 5.980469 7.644531 5.886719 7.855469 5.773438 8.113281 5.671875 8.382812 5.578125 8.652344 5.507812 8.867188 5.621094 9.101562 5.839844 9.175781 5.882812 9.191406 5.925781 9.199219 5.972656 9.199219 6.144531 9.199219 6.304688 9.089844 6.363281 8.917969 6.445312 8.671875 6.542969 8.425781 6.644531 8.1875 6.738281 7.976562 6.644531 7.730469 6.433594 7.640625zM13.242188 20.492188C12.984375 20.492188 12.726562 20.476562 12.472656 20.445312 12.246094 20.421875 12.039062 20.582031 12.011719 20.808594 11.984375 21.035156 12.148438 21.242188 12.375 21.269531 12.660156 21.304688 12.953125 21.320312 13.242188 21.320312L13.277344 21.320312C13.503906 21.320312 13.671875 21.136719 13.671875 20.90625 13.671875 20.679688 13.46875 20.492188 13.242188 20.492188zM7.796875 5.023438C7.597656 5.222656 7.40625 5.4375 7.222656 5.664062 7.078125 5.839844 7.105469 6.101562 7.28125 6.246094 7.359375 6.308594 7.453125 6.339844 7.542969 6.339844 7.664062 6.339844 7.78125 6.285156 7.863281 6.1875 8.03125 5.984375 8.207031 5.789062 8.386719 5.605469 8.546875 5.445312 8.546875 5.183594 8.382812 5.019531 8.222656 4.859375 7.960938 4.863281 7.796875 5.023438zM10.671875 3.144531C10.402344 3.246094 10.136719 3.363281 9.878906 3.496094 9.675781 3.597656 9.59375 3.847656 9.699219 4.050781 9.769531 4.195312 9.914062 4.277344 10.066406 4.277344 10.128906 4.277344 10.195312 4.261719 10.253906 4.234375 10.484375 4.117188 10.722656 4.011719 10.960938 3.921875 11.175781 3.839844 11.285156 3.601562 11.203125 3.386719 11.125 3.171875 10.886719 3.066406 10.671875 3.144531zM10.269531 19.777344C10.042969 19.660156 9.816406 19.53125 9.601562 19.386719 9.410156 19.261719 9.152344 19.316406 9.027344 19.507812 8.902344 19.699219 8.957031 19.953125 9.144531 20.078125 9.386719 20.238281 9.640625 20.382812 9.894531 20.511719 9.953125 20.542969 10.019531 20.558594 10.082031 20.558594 10.234375 20.558594 10.378906 20.476562 10.453125 20.332031 10.554688 20.128906 10.472656 19.878906 10.269531 19.777344zM10.269531 19.777344"/>
</svg>

<svg xmlns="http://www.w3.org/2000/svg" width="32" height="32" viewBox="0 0 24 24">
    <path d="M13.242 0c-.422 0-.84.031-1.25.086A9.65 9.65 0 0 0 10.758 0C7.71 0 4.965 1.477 3.039 3.832c-.02.02-.035.04-.05.059a12.207 12.207 0 0 0-1.571 2.535 13.28 13.28 0 0 0-.758 2.09.623.623 0 0 0-.031.129A13.499 13.499 0 0 0 .207 12c0 1.824.36 3.55 1.004 5.098a.12.12 0 0 0 .02.047c.382.918.867 1.773 1.433 2.543.016.019.027.042.047.058.574.774 1.234 1.461 1.96 2.047.02.023.048.039.071.055C6.45 23.203 8.523 24 10.758 24a9.65 9.65 0 0 0 1.234-.086c.41.055.828.086 1.25.086 5.817 0 10.551-5.383 10.551-12S19.059 0 13.243 0zm-4.37 1.082c-.138.07-.274.145-.407.223l-.223.129c-.113.07-.226.148-.34.222h-.797A8.538 8.538 0 0 1 9 1.012c-.043.02-.086.047-.129.07zM4.698 19.035H3.22a11.229 11.229 0 0 1-.973-1.656h1.567a11.153 11.153 0 0 0 .296.617c.086.168.172.332.262.492.035.059.066.121.102.18.074.125.152.246.226.367zm-2.644-12H3.64c-.075.18-.141.363-.207.547-.02.055-.036.106-.055.156-.059.176-.113.356-.168.54H1.598c.129-.43.285-.844.457-1.243zM1.035 12c0-.277.016-.555.031-.828h1.649v.02a13.868 13.868 0 0 0-.016 1.222H1.051c-.004-.137-.016-.273-.016-.414zm1.711 1.242c.016.172.035.348.059.52 0 .011.004.023.004.035.03.23.066.46.109.687H1.285a12.85 12.85 0 0 1-.183-1.242zm.258-4.14c-.012.05-.02.101-.031.148l-.035.164c-.047.258-.094.524-.13.79l-.003.034-.012.106H1.148c.055-.422.125-.836.22-1.242zm.098 6.207c.011.05.023.105.039.152l.011.059c.07.25.145.496.227.742.02.05.035.101.055.152.015.047.03.094.046.137H1.887a11.84 11.84 0 0 1-.407-1.242zm1.37-9.977c-.035.059-.066.121-.1.18-.09.16-.18.324-.263.492l-.093.184a.085.085 0 0 0-.012.019h-1.55c.312-.59.675-1.144 1.073-1.656h1.45c-.051.074-.102.144-.149.219-.125.183-.242.37-.355.562zm1.212-2.848h1.14c-.101.09-.203.18-.304.274-.082.078-.165.16-.247.242-.082.082-.16.164-.242.25-.074.082-.152.16-.226.246-.067.074-.13.152-.192.227H4.246c.445-.461.922-.88 1.438-1.239zm-1.825 17.38h1.418c.047.058.094.12.141.179.125.16.254.312.387.46.074.087.152.165.226.247l.246.254c.032.031.063.066.098.098H5.129a10.26 10.26 0 0 1-1.27-1.239zM9 22.987a8.807 8.807 0 0 1-2.676-1.058h1c.055.043.11.082.16.12.086.063.172.13.262.188.16.114.328.223.496.328l.223.13c.133.077.27.152.406.222.043.023.086.05.129.07zm4.242.184a8.98 8.98 0 0 1-.976-.055l-.16-.023a.344.344 0 0 0-.067-.008c-.14-.023-.281-.047-.426-.074-.011 0-.023-.004-.035-.008a5.045 5.045 0 0 1-.406-.09c-.02-.004-.04-.012-.059-.016-.125-.03-.25-.066-.375-.101-.039-.012-.074-.027-.113-.04a6.766 6.766 0 0 1-.566-.203c-.055-.023-.114-.042-.168-.066-2.227-.941-4.07-2.793-5.192-5.16a.466.466 0 0 1-.031-.062l-.176-.391c-.02-.055-.043-.105-.062-.16a5.038 5.038 0 0 1-.121-.309 6.691 6.691 0 0 1-.075-.203c-.03-.094-.066-.187-.093-.277-.028-.078-.051-.156-.075-.23-.027-.087-.05-.176-.078-.266-.023-.078-.043-.16-.066-.242l-.063-.262-.058-.25c-.02-.09-.035-.176-.055-.266l-.047-.258c-.015-.09-.027-.183-.043-.273a8.753 8.753 0 0 1-.066-.55c-.008-.079-.02-.157-.027-.235-.008-.117-.016-.23-.02-.348-.004-.066-.012-.129-.016-.195-.004-.184-.011-.367-.011-.551 0-.184.007-.367.011-.55.004-.067.012-.13.016-.196.004-.117.012-.23.02-.348.007-.078.019-.156.027-.234.008-.098.02-.2.031-.3l.035-.25c.016-.095.028-.184.043-.274l.047-.258c.02-.09.035-.176.055-.266l.058-.25c.02-.09.043-.176.063-.261.023-.083.043-.165.066-.247.024-.086.051-.175.078-.261l.07-.23c.032-.095.067-.184.098-.278.024-.067.047-.137.075-.203.039-.106.078-.207.12-.309.02-.055.044-.105.063-.16.059-.133.117-.262.176-.39.012-.02.02-.044.031-.067C5.82 4.305 7.664 2.453 9.891 1.512c.054-.024.113-.047.168-.067a6.766 6.766 0 0 1 .566-.203c.04-.012.074-.027.113-.039.125-.035.25-.07.375-.101.02-.004.04-.012.059-.016.137-.035.27-.066.406-.094.012 0 .024-.004.035-.004.14-.027.285-.05.426-.074.024-.004.047-.004.066-.008l.16-.023a8.98 8.98 0 0 1 .977-.055c5.36 0 9.723 5.012 9.723 11.172 0 6.16-4.363 11.172-9.723 11.172zm0 0"/>
    <path d="M5.863 12c0-.262.008-.523.032-.777a.418.418 0 0 0-.383-.446.417.417 0 0 0-.446.38c-.02.277-.03.562-.03.843v.008c0 .23.183.41.413.41A.42.42 0 0 0 5.863 12zm0 0M20.332 9.637a.412.412 0 0 0 .5.3.41.41 0 0 0 .3-.5 8.26 8.26 0 0 0-.241-.82.413.413 0 1 0-.782.27c.082.242.157.496.223.75zm0 0M18.629 17.8a8.23 8.23 0 0 1-.52.583.41.41 0 0 0 .004.582.396.396 0 0 0 .29.12c.109 0 .214-.038.292-.12.2-.203.395-.418.578-.64a.415.415 0 1 0-.645-.523zm0 0M6.148 14.348a.417.417 0 0 0-.503-.305.418.418 0 0 0-.301.504c.07.273.148.55.242.82a.41.41 0 0 0 .39.278.413.413 0 0 0 .39-.547c-.08-.246-.155-.5-.218-.75zm0 0M17.32 3.91a7.95 7.95 0 0 0-.75-.433.415.415 0 0 0-.37.742c.226.113.452.242.667.383a.412.412 0 0 0 .574-.117.416.416 0 0 0-.12-.575zm0 0M16.242 19.762c-.23.117-.465.222-.707.312a.41.41 0 0 0-.238.531.41.41 0 0 0 .531.243c.27-.102.535-.22.793-.352a.414.414 0 0 0-.379-.734zm0 0M19.75 6.32a8.085 8.085 0 0 0-.516-.687.414.414 0 0 0-.637.527c.165.2.321.41.47.625a.41.41 0 0 0 .574.11.413.413 0 0 0 .109-.575zm0 0M21.035 11.574c-.23 0-.414.2-.414.426 0 .254-.012.512-.031.762a.412.412 0 0 0 .383.441c.011.004.02.004.03.004a.416.416 0 0 0 .415-.383c.02-.273.031-.55.031-.824v-.027a.404.404 0 0 0-.414-.399zm0 0M20.648 14.805a.419.419 0 0 0-.523.261c-.086.25-.18.496-.281.73a.412.412 0 0 0 .379.583c.16 0 .312-.094.379-.25.113-.258.214-.527.308-.797a.418.418 0 0 0-.262-.527zm0 0M14.09 2.73a6.856 6.856 0 0 0-.848-.05h-.02a.404.404 0 0 0-.402.414c0 .226.192.414.422.414a6.84 6.84 0 0 1 .801.047.414.414 0 0 0 .047-.825zm0 0M7.406 17.2a.413.413 0 1 0-.683.464c.16.238.332.469.511.688.082.101.2.152.32.152a.415.415 0 0 0 .32-.676 8.48 8.48 0 0 1-.468-.629zm0 0M6.434 7.64a.417.417 0 0 0-.547.215c-.114.258-.215.528-.309.797a.415.415 0 0 0 .785.266c.082-.246.18-.492.282-.73a.41.41 0 0 0-.211-.547zm0 0M13.242 20.492a6.31 6.31 0 0 1-.77-.047.42.42 0 0 0-.46.364.416.416 0 0 0 .363.46c.285.036.578.051.867.051h.035c.227 0 .395-.183.395-.414 0-.226-.203-.414-.43-.414zm0 0M7.797 5.023c-.2.2-.39.415-.574.641a.415.415 0 0 0 .32.676.42.42 0 0 0 .32-.152c.168-.204.344-.399.524-.583a.414.414 0 1 0-.59-.582zm0 0M10.672 3.145c-.27.101-.535.218-.793.351a.41.41 0 0 0-.18.555c.07.144.215.226.367.226a.453.453 0 0 0 .188-.043c.23-.117.469-.222.707-.312a.415.415 0 0 0-.29-.777zm0 0M10.27 19.777a6.767 6.767 0 0 1-.668-.39.414.414 0 1 0-.457.691c.242.16.496.305.75.434a.415.415 0 0 0 .559-.18.415.415 0 0 0-.184-.555zm0 0"/>
</svg>
